X:1
T:Reapers Are Needed
T:Samuel William Beazley
T:Reapers Are Needed
T:Public Domain
T:Public Domain
T:Public Domain
C:Samuel William Beazley
Z:Public Domain
%%score ( 1 2 ) ( 3 4 )
L:1/8
M:6/8
K:F
V:1 treble 
V:2 treble 
V:3 bass 
V:4 bass 
V:1
 CDE FGA | c3 [CFAc]3 | CDE FGA | c3- [CEBc]3 | [EBd]BG EGB | [EBd]3 [EBd]3 | %6
w: 1.~Hark to the mu- sic re-|sound- ing,|Reap- ers are need- ed to-|day; *|Fields are all white, to the|har- vest|
w: 2.~For- ward with hearts full of|glad- ness,|Reap- ers, I pray you, make|haste; *|Grain there is read- y and|wait- ing,|
w: 3.~Hark to the song they are|sing- ing!|See, they have trea- sures so|rare; *|Soon will the har- vest be|end- ed,|
 [Be][Bd][Ac] [GB][Ac][GB] | [FA]3- [FA]3 | CDE FGA | c3 [CFAc]3 | DE^F GAB | d3 [DGBd]3 | %12
w: Let us be up and a-|way! *|Ev- er the Mas- ter is|call- ing,|Has- ten! the shad- ows are|fall- ing;|
w: If not soon gath- ered, will|waste; *|Then let us hear you re-|ply- ing,|La- bor with cour- age un-|dy- ing,|
w: Haste, then, their tro- phies to|share. *|Let no one be id- ly|dream- ing,|Look! look! the har- vest is|gleam- ing,|
 [Be][Bd][Ac] [Af][Ad][Ac] | AGF DEF | [=B,FA]3 [_B,EG]3 | [A,CF]3- [A,CF]3 || %16
w: On to the har- vest field,|Ga- ther the gold- en yield,|Pre- cious|sheaves. *|
w: Send up a word of cheer,|Tell of the rest so near,|Rest at|home. *|
w: Join ye the reap- ing band,|Lend them a help- ing hand,|Ere the|night. *|
"^Refrain" [Fc]3 [Ec]3 | [Fc]2 [Ec] [Fc]3 | [FA]3 [EA]3 | [FA]2 [GA] [FA]3 | G2 [^FA] [GB]2 [FA] | %21
w: |||||
w: Hark! hark!|comes the song,|On! on!|join the throng;|Forth with joy- ful,|
w: |||||
 G2 [^FA] [GB]3 | [F=B]2 [FG] [Ge]2 [Fd] | [Ec]3- [Ec]3 | [Fc]3 [Ec]3 | [Fc]2 [Ec] [Fc]3 | %26
w: |||||
w: ing heart, Brave-|do your part; Hark!|hark! *|rings the|call; Haste! haste!|
w: |||||
 [Fd]3 [^Fd]3 | [Gd]2 [^Fd] [Gd]3 | [Be][Bd][Ac] [Af][Ad][Ac] | AGF DEF | [FA]3 [EG]3 | F6 |] %32
w: ||||||
w: one and|all; On where|the har- vest stands, Wait- ing|for will- ing hands Souls to|||
w: ||||||
V:2
 x6 | x6 | x6 | x6 | x6 | x6 | x6 | x6 | x6 | x6 | x6 | x6 | x6 | x6 | x6 | x6 || x6 | x6 | x6 | %19
w: |||||||||||||||||||
w: |||||||||||||||||||
 x6 | G2 x4 | G2 x4 | x6 | x6 | x6 | x6 | x6 | x6 | x6 | AGF DEF | x6 | F6 |] %32
w: |||||||||||||
w: |lov-|ly||||||||win. * * * * *|||
V:3
 C,D,E, F,G,A, | C3 [F,,F,]3 | C,D,E, F,G,A, | C3 [G,,G,]3 | [C,,C,]3 [C,E,G,B,]3 | %5
 [C,,C,]3 [C,E,G,B,]3 | [C,,C,]3 [E,G,C]3 | [F,,F,]3 [F,A,C]3 | C,D,E, F,G,A, | C3 [F,,F,]3 | %10
 D,E,^F, G,A,B, | D3 [G,,G,]3 | [C,,C,]3 [F,,F,]3 | A,G,F, D,E,F, | [G,,G,]3 [C,,C,]3 | %15
 [F,,F,]2 C, [F,,F,]3 || [F,A,]3 [C,G,]3 | [F,A,]2 [G,B,] [A,C]3 | [D,D]3 [A,,^C]3 | %19
 [D,D]2 [E,^C] [F,D]3 | [B,D]2 [A,D] [G,D]2 [A,D] | [B,D]2 [A,D] [G,D]3 | %22
 [G,D]2 [G,=B,] [G,B,]2 [G,B,] | [C,C]3- [C,C]3 | [F,A,]3 [C,G,]3 | [F,A,]2 [G,B,] [A,C]3 | %26
 B,3 [A,C]3 | [G,B,]2 [A,C] [B,D]3 | CCC [F,C][F,C][F,C] | A,G,F, D,E,F, | [G,=B,]3 [C,_B,]3 | %31
 [F,A,]6 |] %32
V:4
 x6 | x6 | x6 | x6 | x6 | x6 | x6 | x6 | x6 | x6 | x6 | x6 | x6 | x6 | x6 | x6 || x6 | x6 | x6 | %19
 x6 | x6 | x6 | x6 | x6 | x6 | x6 | B,3 x3 | x6 | CCC x3 | A,G,F, D,E,F, | x6 | x6 |] %32

